X: 70
T: No_161_Song_of_an_Unsuccessful_Hunter.krn
N: Derived from No_161_Song_of_an_Unsuccessful_Hunter.krn
%%abc-version 2.0
%%abcx-abcm2ps-target-version 5.9.1 (29 Sep 2008)
%%abc-creator hum2abc beta
%%abcx-conversion-date 2019/03/15 08:37:56
%%humdrum-veritas 430193298
%%humdrum-veritas-data 1865997442
%%linebreak <none>
%%barnumbers 0
L: 1/4
M: 2/4
K: D clef=bass
[K:clef=bass][M:2/4]A,2 | 
EE | 
D2 | 
(B,/A,/) D/B,/ ||  
[M:3/4]D2B, ||  
[M:2/4]A,2 | 
E2 | 
DD | 
B,3/A,/ | 
B,B,/F,/ ||  
[M:3/4]A,2F, ||  
[M:2/4]E,z | 
D3/B,/ | 
DD | 
B,3/A,/ | 
B,B,/F,/ | 
A,2 | 
F,/E,/ E,/ z/ | 
A,B, | 
A,/F,/F, | 
D,A,/F,/ ||  
[M:3/4]A,2A, | 
A,3 |]  



